; G-Code originally generated by Simplify3D(R) Version 4.1.2
; This calibration test gcode modified by the Teaching Tech Calibration website: https://teachingtechyt.github.io/calibration.html
;M80 ; power supply on
G90
M82
M106 S0
M140 S60 ; custom bed temp
M190 S60 ; custom bed temp
M104 S140 T0 ; custom hot end temp minus 50 degrees
G28 ; home all axes
;G29 ; probe ABL
;M420 S1 ; restore ABL mesh
M109 S190 T0 ; custom hot end temp 
;customstart
G0 Z3; fix for delta printers that home at max
; square 1
;process Process
;layer 1, Z = 0.200
T0
G92 E0.0000
G1 E-1 F2400 ; custom retraction
;fan1;
G1 Z0.200 F1200
G1 X24.6360 Y26.3140 F6000
G1 E0 F2400 ; custom un-retraction/prime
G92 E0.0000
G1 X26.3140 Y24.6360 E0.1023 F1800
G1 X53.6860 Y24.6360 E1.2822
G1 X55.3640 Y26.3140 E1.3844
G1 X55.3640 Y53.6860 E2.5643
G1 X53.6860 Y55.3640 E2.6666
G1 X26.3140 Y55.3640 E3.8465
G1 X24.6360 Y53.6860 E3.9487
G1 X24.6360 Y26.3140 E5.1286
G92 E0.0000
G1 E-1 F2400 ; custom retraction
;zhop1
G1 X25.2120 Y26.5520 F6000
G1 Z0.200 F1200
G1 E0 F2400 ; custom un-retraction/prime
G92 E0.0000
G1 X26.5520 Y25.2120 E0.0817 F1800
G1 X53.4480 Y25.2120 E1.2410
G1 X54.7880 Y26.5520 E1.3227
G1 X54.7880 Y53.4480 E2.4820
G1 X53.4480 Y54.7880 E2.5637
G1 X26.5520 Y54.7880 E3.7231
G1 X25.2120 Y53.4480 E3.8048
G1 X25.2120 Y26.5520 E4.9641
G92 E0.0000
G1 E-1 F2400 ; custom retraction
;zhop1
G1 X27.7880 Y27.7880 F6000
G1 X27.7880 Y28.2020
G1 X28.9400 Y28.9400
G1 Z0.200 F1200
G1 E0 F2400 ; custom un-retraction/prime
G92 E0.0000
G1 X51.0600 Y28.9400 E0.9535 F1440
G1 X51.0600 Y51.0600 E1.9069
G1 X28.9400 Y51.0600 E2.8604
G1 X28.9400 Y28.9400 E3.8139
G1 X28.3640 Y28.3640 F6000
G92 E0.0000
G1 X51.6360 Y28.3640 E1.0031 F1440
G1 X51.6360 Y51.6360 E2.0063
G1 X28.3640 Y51.6360 E3.0094
G1 X28.3640 Y28.3640 E4.0125
G1 X27.7880 Y27.7880 F6000
G92 E0.0000
G1 X52.2120 Y27.7880 E1.0528 F1080
G1 X52.2120 Y52.2120 E2.1056
G1 X27.7880 Y52.2120 E3.1584
G1 X27.7880 Y27.7880 E4.2111
G1 X50.4650 Y29.2860 F6000
G92 E0.0000
G1 X50.7140 Y29.5350 E0.0152 F1440
G1 X50.7140 Y30.3500 E0.0503
G1 X49.6500 Y29.2860 E0.1152
G1 X48.8360 Y29.2860 E0.1503
G1 X50.7140 Y31.1640 E0.2648
G1 X50.7140 Y31.9790 E0.2999
G1 X48.0210 Y29.2860 E0.4640
G1 X47.2070 Y29.2860 E0.4992
G1 X50.7140 Y32.7930 E0.7130
G1 X50.7140 Y33.6080 E0.7481
G1 X46.3920 Y29.2860 E1.0116
G1 X45.5780 Y29.2860 E1.0467
G1 X50.7140 Y34.4220 E1.3598
G1 X50.7140 Y35.2370 E1.3949
G1 X44.7630 Y29.2860 E1.7577
G1 X43.9480 Y29.2860 E1.7928
G1 X50.7140 Y36.0520 E2.2053
G1 X50.7140 Y36.8660 E2.2404
G1 X43.1340 Y29.2860 E2.7025
G1 X42.3190 Y29.2860 E2.7376
G1 X50.7140 Y37.6810 E3.2494
G1 X50.7140 Y38.4950 E3.2845
G1 X41.5050 Y29.2860 E3.8459
G1 X40.6900 Y29.2860 E3.8810
G1 X50.7140 Y39.3100 E4.4921
G1 X50.7140 Y40.1250 E4.5272
G1 X39.8750 Y29.2860 E5.1879
G1 X39.0610 Y29.2860 E5.2231
G1 X50.7140 Y40.9390 E5.9334
G1 X50.7140 Y41.7540 E5.9686
G1 X38.2460 Y29.2860 E6.7286
G1 X37.4320 Y29.2860 E6.7637
G1 X50.7140 Y42.5680 E7.5734
G1 X50.7140 Y43.3830 E7.6085
G1 X36.6170 Y29.2860 E8.4679
G1 X35.8020 Y29.2860 E8.5030
G1 X50.7140 Y44.1980 E9.4120
G1 X50.7140 Y45.0120 E9.4471
G1 X34.9880 Y29.2860 E10.4058
G1 X34.1730 Y29.2860 E10.4409
G1 X50.7140 Y45.8270 E11.4493
G1 X50.7140 Y46.6410 E11.4844
G1 X33.3590 Y29.2860 E12.5424
G1 X32.5440 Y29.2860 E12.5775
G1 X50.7140 Y47.4560 E13.6851
G1 X50.7140 Y48.2700 E13.7202
G1 X31.7300 Y29.2860 E14.8775
G1 X30.9150 Y29.2860 E14.9127
G1 X50.7140 Y49.0850 E16.1196
G1 X50.7140 Y49.9000 E16.1547
G1 X30.1000 Y29.2860 E17.4113
G1 X29.2860 Y29.2860 E17.4465
G1 X50.7140 Y50.7140 E18.7527
G1 X49.9000 Y50.7140 E18.7879
G1 X29.2860 Y30.1000 E20.0445
G1 X29.2860 Y30.9150 E20.0796
G1 X49.0850 Y50.7140 E21.2865
G1 X48.2700 Y50.7140 E21.3217
G1 X29.2860 Y31.7300 E22.4790
G1 X29.2860 Y32.5440 E22.5141
G1 X47.4560 Y50.7140 E23.6217
G1 X46.6410 Y50.7140 E23.6568
G1 X29.2860 Y33.3590 E24.7148
G1 X29.2860 Y34.1730 E24.7499
G1 X45.8270 Y50.7140 E25.7583
G1 X45.0120 Y50.7140 E25.7934
G1 X29.2860 Y34.9880 E26.7521
G1 X29.2860 Y35.8020 E26.7872
G1 X44.1980 Y50.7140 E27.6962
G1 X43.3830 Y50.7140 E27.7313
G1 X29.2860 Y36.6170 E28.5907
G1 X29.2860 Y37.4320 E28.6258
G1 X42.5680 Y50.7140 E29.4355
G1 X41.7540 Y50.7140 E29.4706
G1 X29.2860 Y38.2460 E30.2307
G1 X29.2860 Y39.0610 E30.2658
G1 X40.9390 Y50.7140 E30.9762
G1 X40.1250 Y50.7140 E31.0113
G1 X29.2860 Y39.8750 E31.6720
G1 X29.2860 Y40.6900 E31.7071
G1 X39.3100 Y50.7140 E32.3182
G1 X38.4950 Y50.7140 E32.3533
G1 X29.2860 Y41.5050 E32.9147
G1 X29.2860 Y42.3190 E32.9499
G1 X37.6810 Y50.7140 E33.4616
G1 X36.8660 Y50.7140 E33.4967
G1 X29.2860 Y43.1340 E33.9588
G1 X29.2860 Y43.9480 E33.9939
G1 X36.0520 Y50.7140 E34.4064
G1 X35.2370 Y50.7140 E34.4415
G1 X29.2860 Y44.7630 E34.8043
G1 X29.2860 Y45.5770 E34.8394
G1 X34.4230 Y50.7140 E35.1525
G1 X33.6080 Y50.7140 E35.1877
G1 X29.2860 Y46.3920 E35.4511
G1 X29.2860 Y47.2070 E35.4863
G1 X32.7930 Y50.7140 E35.7001
G1 X31.9790 Y50.7140 E35.7352
G1 X29.2860 Y48.0210 E35.8994
G1 X29.2860 Y48.8360 E35.9345
G1 X31.1640 Y50.7140 E36.0490
G1 X30.3500 Y50.7140 E36.0841
G1 X29.2860 Y49.6500 E36.1489
G1 X29.2860 Y50.4650 E36.1840
G1 X29.5350 Y50.7140 E36.1992
G92 E0.0000
G1 E-1 F2400 ; custom retraction

; square 2
;process Process
;layer 1, Z = 0.200
T0
G92 E0.0000
G1 E-1 F2400 ; custom retraction
;fan1;
G1 Z0.200 F1200
G1 X24.6360 Y181.3140 F6000
G1 E0 F2400 ; custom un-retraction/prime
G92 E0.0000
G1 X26.3140 Y179.6360 E0.1023 F1800
G1 X53.6860 Y179.6360 E1.2822
G1 X55.3640 Y181.3140 E1.3844
G1 X55.3640 Y208.6860 E2.5643
G1 X53.6860 Y210.3640 E2.6666
G1 X26.3140 Y210.3640 E3.8465
G1 X24.6360 Y208.6860 E3.9487
G1 X24.6360 Y181.3140 E5.1286
G92 E0.0000
G1 E-1 F2400 ; custom retraction
;zhop1
G1 X25.2120 Y181.5520 F6000
G1 Z0.200 F1200
G1 E0 F2400 ; custom un-retraction/prime
G92 E0.0000
G1 X26.5520 Y180.2120 E0.0817 F1800
G1 X53.4480 Y180.2120 E1.2410
G1 X54.7880 Y181.5520 E1.3227
G1 X54.7880 Y208.4480 E2.4820
G1 X53.4480 Y209.7880 E2.5637
G1 X26.5520 Y209.7880 E3.7231
G1 X25.2120 Y208.4480 E3.8048
G1 X25.2120 Y181.5520 E4.9641
G92 E0.0000
G1 E-1 F2400 ; custom retraction
;zhop1
G1 X27.7880 Y182.7880 F6000
G1 X27.7880 Y183.2020
G1 X28.9400 Y183.9400
G1 Z0.200 F1200
G1 E0 F2400 ; custom un-retraction/prime
G92 E0.0000
G1 X51.0600 Y183.9400 E0.9535 F1440
G1 X51.0600 Y206.0600 E1.9069
G1 X28.9400 Y206.0600 E2.8604
G1 X28.9400 Y183.9400 E3.8139
G1 X28.3640 Y183.3640 F6000
G92 E0.0000
G1 X51.6360 Y183.3640 E1.0031 F1440
G1 X51.6360 Y206.6360 E2.0063
G1 X28.3640 Y206.6360 E3.0094
G1 X28.3640 Y183.3640 E4.0125
G1 X27.7880 Y182.7880 F6000
G92 E0.0000
G1 X52.2120 Y182.7880 E1.0528 F1080
G1 X52.2120 Y207.2120 E2.1056
G1 X27.7880 Y207.2120 E3.1584
G1 X27.7880 Y182.7880 E4.2111
G1 X50.4650 Y184.2860 F6000
G92 E0.0000
G1 X50.7140 Y184.5350 E0.0152 F1440
G1 X50.7140 Y185.3500 E0.0503
G1 X49.6500 Y184.2860 E0.1152
G1 X48.8360 Y184.2860 E0.1503
G1 X50.7140 Y186.1640 E0.2648
G1 X50.7140 Y186.9790 E0.2999
G1 X48.0210 Y184.2860 E0.4640
G1 X47.2070 Y184.2860 E0.4992
G1 X50.7140 Y187.7930 E0.7130
G1 X50.7140 Y188.6080 E0.7481
G1 X46.3920 Y184.2860 E1.0116
G1 X45.5780 Y184.2860 E1.0467
G1 X50.7140 Y189.4220 E1.3598
G1 X50.7140 Y190.2370 E1.3949
G1 X44.7630 Y184.2860 E1.7577
G1 X43.9480 Y184.2860 E1.7928
G1 X50.7140 Y191.0520 E2.2053
G1 X50.7140 Y191.8660 E2.2404
G1 X43.1340 Y184.2860 E2.7025
G1 X42.3190 Y184.2860 E2.7376
G1 X50.7140 Y192.6810 E3.2494
G1 X50.7140 Y193.4950 E3.2845
G1 X41.5050 Y184.2860 E3.8459
G1 X40.6900 Y184.2860 E3.8810
G1 X50.7140 Y194.3100 E4.4921
G1 X50.7140 Y195.1250 E4.5272
G1 X39.8750 Y184.2860 E5.1879
G1 X39.0610 Y184.2860 E5.2231
G1 X50.7140 Y195.9390 E5.9334
G1 X50.7140 Y196.7540 E5.9686
G1 X38.2460 Y184.2860 E6.7286
G1 X37.4320 Y184.2860 E6.7637
G1 X50.7140 Y197.5680 E7.5734
G1 X50.7140 Y198.3830 E7.6085
G1 X36.6170 Y184.2860 E8.4679
G1 X35.8020 Y184.2860 E8.5030
G1 X50.7140 Y199.1980 E9.4120
G1 X50.7140 Y200.0120 E9.4471
G1 X34.9880 Y184.2860 E10.4058
G1 X34.1730 Y184.2860 E10.4409
G1 X50.7140 Y200.8270 E11.4493
G1 X50.7140 Y201.6410 E11.4844
G1 X33.3590 Y184.2860 E12.5424
G1 X32.5440 Y184.2860 E12.5775
G1 X50.7140 Y202.4560 E13.6851
G1 X50.7140 Y203.2700 E13.7202
G1 X31.7300 Y184.2860 E14.8775
G1 X30.9150 Y184.2860 E14.9127
G1 X50.7140 Y204.0850 E16.1196
G1 X50.7140 Y204.9000 E16.1547
G1 X30.1000 Y184.2860 E17.4113
G1 X29.2860 Y184.2860 E17.4465
G1 X50.7140 Y205.7140 E18.7527
G1 X49.9000 Y205.7140 E18.7879
G1 X29.2860 Y185.1000 E20.0445
G1 X29.2860 Y185.9150 E20.0796
G1 X49.0850 Y205.7140 E21.2865
G1 X48.2700 Y205.7140 E21.3217
G1 X29.2860 Y186.7300 E22.4790
G1 X29.2860 Y187.5440 E22.5141
G1 X47.4560 Y205.7140 E23.6217
G1 X46.6410 Y205.7140 E23.6568
G1 X29.2860 Y188.3590 E24.7148
G1 X29.2860 Y189.1730 E24.7499
G1 X45.8270 Y205.7140 E25.7583
G1 X45.0120 Y205.7140 E25.7934
G1 X29.2860 Y189.9880 E26.7521
G1 X29.2860 Y190.8020 E26.7872
G1 X44.1980 Y205.7140 E27.6962
G1 X43.3830 Y205.7140 E27.7313
G1 X29.2860 Y191.6170 E28.5907
G1 X29.2860 Y192.4320 E28.6258
G1 X42.5680 Y205.7140 E29.4355
G1 X41.7540 Y205.7140 E29.4706
G1 X29.2860 Y193.2460 E30.2307
G1 X29.2860 Y194.0610 E30.2658
G1 X40.9390 Y205.7140 E30.9762
G1 X40.1250 Y205.7140 E31.0113
G1 X29.2860 Y194.8750 E31.6720
G1 X29.2860 Y195.6900 E31.7071
G1 X39.3100 Y205.7140 E32.3182
G1 X38.4950 Y205.7140 E32.3533
G1 X29.2860 Y196.5050 E32.9147
G1 X29.2860 Y197.3190 E32.9499
G1 X37.6810 Y205.7140 E33.4616
G1 X36.8660 Y205.7140 E33.4967
G1 X29.2860 Y198.1340 E33.9588
G1 X29.2860 Y198.9480 E33.9939
G1 X36.0520 Y205.7140 E34.4064
G1 X35.2370 Y205.7140 E34.4415
G1 X29.2860 Y199.7630 E34.8043
G1 X29.2860 Y200.5770 E34.8394
G1 X34.4230 Y205.7140 E35.1525
G1 X33.6080 Y205.7140 E35.1877
G1 X29.2860 Y201.3920 E35.4511
G1 X29.2860 Y202.2070 E35.4863
G1 X32.7930 Y205.7140 E35.7001
G1 X31.9790 Y205.7140 E35.7352
G1 X29.2860 Y203.0210 E35.8994
G1 X29.2860 Y203.8360 E35.9345
G1 X31.1640 Y205.7140 E36.0490
G1 X30.3500 Y205.7140 E36.0841
G1 X29.2860 Y204.6500 E36.1489
G1 X29.2860 Y205.4650 E36.1840
G1 X29.5350 Y205.7140 E36.1992
G92 E0.0000
G1 E-1 F2400 ; custom retraction

; square 3
;process Process
;layer 1, Z = 0.200
T0
G92 E0.0000
G1 E-1 F2400 ; custom retraction
;fan1;
G1 Z0.200 F1200
G1 X102.1360 Y103.8140 F6000
G1 E0 F2400 ; custom un-retraction/prime
G92 E0.0000
G1 X103.8140 Y102.1360 E0.1023 F1800
G1 X131.1860 Y102.1360 E1.2822
G1 X132.8640 Y103.8140 E1.3844
G1 X132.8640 Y131.1860 E2.5643
G1 X131.1860 Y132.8640 E2.6666
G1 X103.8140 Y132.8640 E3.8465
G1 X102.1360 Y131.1860 E3.9487
G1 X102.1360 Y103.8140 E5.1286
G92 E0.0000
G1 E-1 F2400 ; custom retraction
;zhop1
G1 X102.7120 Y104.0520 F6000
G1 Z0.200 F1200
G1 E0 F2400 ; custom un-retraction/prime
G92 E0.0000
G1 X104.0520 Y102.7120 E0.0817 F1800
G1 X130.9480 Y102.7120 E1.2410
G1 X132.2880 Y104.0520 E1.3227
G1 X132.2880 Y130.9480 E2.4820
G1 X130.9480 Y132.2880 E2.5637
G1 X104.0520 Y132.2880 E3.7231
G1 X102.7120 Y130.9480 E3.8048
G1 X102.7120 Y104.0520 E4.9641
G92 E0.0000
G1 E-1 F2400 ; custom retraction
;zhop1
G1 X105.2880 Y105.2880 F6000
G1 X105.2880 Y105.7020
G1 X106.4400 Y106.4400
G1 Z0.200 F1200
G1 E0 F2400 ; custom un-retraction/prime
G92 E0.0000
G1 X128.5600 Y106.4400 E0.9535 F1440
G1 X128.5600 Y128.5600 E1.9069
G1 X106.4400 Y128.5600 E2.8604
G1 X106.4400 Y106.4400 E3.8139
G1 X105.8640 Y105.8640 F6000
G92 E0.0000
G1 X129.1360 Y105.8640 E1.0031 F1440
G1 X129.1360 Y129.1360 E2.0063
G1 X105.8640 Y129.1360 E3.0094
G1 X105.8640 Y105.8640 E4.0125
G1 X105.2880 Y105.2880 F6000
G92 E0.0000
G1 X129.7120 Y105.2880 E1.0528 F1080
G1 X129.7120 Y129.7120 E2.1056
G1 X105.2880 Y129.7120 E3.1584
G1 X105.2880 Y105.2880 E4.2111
G1 X127.9650 Y106.7860 F6000
G92 E0.0000
G1 X128.2140 Y107.0350 E0.0152 F1440
G1 X128.2140 Y107.8500 E0.0503
G1 X127.1500 Y106.7860 E0.1152
G1 X126.3360 Y106.7860 E0.1503
G1 X128.2140 Y108.6640 E0.2648
G1 X128.2140 Y109.4790 E0.2999
G1 X125.5210 Y106.7860 E0.4640
G1 X124.7070 Y106.7860 E0.4992
G1 X128.2140 Y110.2930 E0.7130
G1 X128.2140 Y111.1080 E0.7481
G1 X123.8920 Y106.7860 E1.0116
G1 X123.0780 Y106.7860 E1.0467
G1 X128.2140 Y111.9220 E1.3598
G1 X128.2140 Y112.7370 E1.3949
G1 X122.2630 Y106.7860 E1.7577
G1 X121.4480 Y106.7860 E1.7928
G1 X128.2140 Y113.5520 E2.2053
G1 X128.2140 Y114.3660 E2.2404
G1 X120.6340 Y106.7860 E2.7025
G1 X119.8190 Y106.7860 E2.7376
G1 X128.2140 Y115.1810 E3.2494
G1 X128.2140 Y115.9950 E3.2845
G1 X119.0050 Y106.7860 E3.8459
G1 X118.1900 Y106.7860 E3.8810
G1 X128.2140 Y116.8100 E4.4921
G1 X128.2140 Y117.6250 E4.5272
G1 X117.3750 Y106.7860 E5.1879
G1 X116.5610 Y106.7860 E5.2231
G1 X128.2140 Y118.4390 E5.9334
G1 X128.2140 Y119.2540 E5.9686
G1 X115.7460 Y106.7860 E6.7286
G1 X114.9320 Y106.7860 E6.7637
G1 X128.2140 Y120.0680 E7.5734
G1 X128.2140 Y120.8830 E7.6085
G1 X114.1170 Y106.7860 E8.4679
G1 X113.3020 Y106.7860 E8.5030
G1 X128.2140 Y121.6980 E9.4120
G1 X128.2140 Y122.5120 E9.4471
G1 X112.4880 Y106.7860 E10.4058
G1 X111.6730 Y106.7860 E10.4409
G1 X128.2140 Y123.3270 E11.4493
G1 X128.2140 Y124.1410 E11.4844
G1 X110.8590 Y106.7860 E12.5424
G1 X110.0440 Y106.7860 E12.5775
G1 X128.2140 Y124.9560 E13.6851
G1 X128.2140 Y125.7700 E13.7202
G1 X109.2300 Y106.7860 E14.8775
G1 X108.4150 Y106.7860 E14.9127
G1 X128.2140 Y126.5850 E16.1196
G1 X128.2140 Y127.4000 E16.1547
G1 X107.6000 Y106.7860 E17.4113
G1 X106.7860 Y106.7860 E17.4465
G1 X128.2140 Y128.2140 E18.7527
G1 X127.4000 Y128.2140 E18.7879
G1 X106.7860 Y107.6000 E20.0445
G1 X106.7860 Y108.4150 E20.0796
G1 X126.5850 Y128.2140 E21.2865
G1 X125.7700 Y128.2140 E21.3217
G1 X106.7860 Y109.2300 E22.4790
G1 X106.7860 Y110.0440 E22.5141
G1 X124.9560 Y128.2140 E23.6217
G1 X124.1410 Y128.2140 E23.6568
G1 X106.7860 Y110.8590 E24.7148
G1 X106.7860 Y111.6730 E24.7499
G1 X123.3270 Y128.2140 E25.7583
G1 X122.5120 Y128.2140 E25.7934
G1 X106.7860 Y112.4880 E26.7521
G1 X106.7860 Y113.3020 E26.7872
G1 X121.6980 Y128.2140 E27.6962
G1 X120.8830 Y128.2140 E27.7313
G1 X106.7860 Y114.1170 E28.5907
G1 X106.7860 Y114.9320 E28.6258
G1 X120.0680 Y128.2140 E29.4355
G1 X119.2540 Y128.2140 E29.4706
G1 X106.7860 Y115.7460 E30.2307
G1 X106.7860 Y116.5610 E30.2658
G1 X118.4390 Y128.2140 E30.9762
G1 X117.6250 Y128.2140 E31.0113
G1 X106.7860 Y117.3750 E31.6720
G1 X106.7860 Y118.1900 E31.7071
G1 X116.8100 Y128.2140 E32.3182
G1 X115.9950 Y128.2140 E32.3533
G1 X106.7860 Y119.0050 E32.9147
G1 X106.7860 Y119.8190 E32.9499
G1 X115.1810 Y128.2140 E33.4616
G1 X114.3660 Y128.2140 E33.4967
G1 X106.7860 Y120.6340 E33.9588
G1 X106.7860 Y121.4480 E33.9939
G1 X113.5520 Y128.2140 E34.4064
G1 X112.7370 Y128.2140 E34.4415
G1 X106.7860 Y122.2630 E34.8043
G1 X106.7860 Y123.0770 E34.8394
G1 X111.9230 Y128.2140 E35.1525
G1 X111.1080 Y128.2140 E35.1877
G1 X106.7860 Y123.8920 E35.4511
G1 X106.7860 Y124.7070 E35.4863
G1 X110.2930 Y128.2140 E35.7001
G1 X109.4790 Y128.2140 E35.7352
G1 X106.7860 Y125.5210 E35.8994
G1 X106.7860 Y126.3360 E35.9345
G1 X108.6640 Y128.2140 E36.0490
G1 X107.8500 Y128.2140 E36.0841
G1 X106.7860 Y127.1500 E36.1489
G1 X106.7860 Y127.9650 E36.1840
G1 X107.0350 Y128.2140 E36.1992
G92 E0.0000
G1 E-1 F2400 ; custom retraction

; square 4
;process Process
;layer 1, Z = 0.200
T0
G92 E0.0000
G1 E-1 F2400 ; custom retraction
;fan1;
G1 Z0.200 F1200
G1 X179.6360 Y26.3140 F6000
G1 E0 F2400 ; custom un-retraction/prime
G92 E0.0000
G1 X181.3140 Y24.6360 E0.1023 F1800
G1 X208.6860 Y24.6360 E1.2822
G1 X210.3640 Y26.3140 E1.3844
G1 X210.3640 Y53.6860 E2.5643
G1 X208.6860 Y55.3640 E2.6666
G1 X181.3140 Y55.3640 E3.8465
G1 X179.6360 Y53.6860 E3.9487
G1 X179.6360 Y26.3140 E5.1286
G92 E0.0000
G1 E-1 F2400 ; custom retraction
;zhop1
G1 X180.2120 Y26.5520 F6000
G1 Z0.200 F1200
G1 E0 F2400 ; custom un-retraction/prime
G92 E0.0000
G1 X181.5520 Y25.2120 E0.0817 F1800
G1 X208.4480 Y25.2120 E1.2410
G1 X209.7880 Y26.5520 E1.3227
G1 X209.7880 Y53.4480 E2.4820
G1 X208.4480 Y54.7880 E2.5637
G1 X181.5520 Y54.7880 E3.7231
G1 X180.2120 Y53.4480 E3.8048
G1 X180.2120 Y26.5520 E4.9641
G92 E0.0000
G1 E-1 F2400 ; custom retraction
;zhop1
G1 X182.7880 Y27.7880 F6000
G1 X182.7880 Y28.2020
G1 X183.9400 Y28.9400
G1 Z0.200 F1200
G1 E0 F2400 ; custom un-retraction/prime
G92 E0.0000
G1 X206.0600 Y28.9400 E0.9535 F1440
G1 X206.0600 Y51.0600 E1.9069
G1 X183.9400 Y51.0600 E2.8604
G1 X183.9400 Y28.9400 E3.8139
G1 X183.3640 Y28.3640 F6000
G92 E0.0000
G1 X206.6360 Y28.3640 E1.0031 F1440
G1 X206.6360 Y51.6360 E2.0063
G1 X183.3640 Y51.6360 E3.0094
G1 X183.3640 Y28.3640 E4.0125
G1 X182.7880 Y27.7880 F6000
G92 E0.0000
G1 X207.2120 Y27.7880 E1.0528 F1080
G1 X207.2120 Y52.2120 E2.1056
G1 X182.7880 Y52.2120 E3.1584
G1 X182.7880 Y27.7880 E4.2111
G1 X205.4650 Y29.2860 F6000
G92 E0.0000
G1 X205.7140 Y29.5350 E0.0152 F1440
G1 X205.7140 Y30.3500 E0.0503
G1 X204.6500 Y29.2860 E0.1152
G1 X203.8360 Y29.2860 E0.1503
G1 X205.7140 Y31.1640 E0.2648
G1 X205.7140 Y31.9790 E0.2999
G1 X203.0210 Y29.2860 E0.4640
G1 X202.2070 Y29.2860 E0.4992
G1 X205.7140 Y32.7930 E0.7130
G1 X205.7140 Y33.6080 E0.7481
G1 X201.3920 Y29.2860 E1.0116
G1 X200.5780 Y29.2860 E1.0467
G1 X205.7140 Y34.4220 E1.3598
G1 X205.7140 Y35.2370 E1.3949
G1 X199.7630 Y29.2860 E1.7577
G1 X198.9480 Y29.2860 E1.7928
G1 X205.7140 Y36.0520 E2.2053
G1 X205.7140 Y36.8660 E2.2404
G1 X198.1340 Y29.2860 E2.7025
G1 X197.3190 Y29.2860 E2.7376
G1 X205.7140 Y37.6810 E3.2494
G1 X205.7140 Y38.4950 E3.2845
G1 X196.5050 Y29.2860 E3.8459
G1 X195.6900 Y29.2860 E3.8810
G1 X205.7140 Y39.3100 E4.4921
G1 X205.7140 Y40.1250 E4.5272
G1 X194.8750 Y29.2860 E5.1879
G1 X194.0610 Y29.2860 E5.2231
G1 X205.7140 Y40.9390 E5.9334
G1 X205.7140 Y41.7540 E5.9686
G1 X193.2460 Y29.2860 E6.7286
G1 X192.4320 Y29.2860 E6.7637
G1 X205.7140 Y42.5680 E7.5734
G1 X205.7140 Y43.3830 E7.6085
G1 X191.6170 Y29.2860 E8.4679
G1 X190.8020 Y29.2860 E8.5030
G1 X205.7140 Y44.1980 E9.4120
G1 X205.7140 Y45.0120 E9.4471
G1 X189.9880 Y29.2860 E10.4058
G1 X189.1730 Y29.2860 E10.4409
G1 X205.7140 Y45.8270 E11.4493
G1 X205.7140 Y46.6410 E11.4844
G1 X188.3590 Y29.2860 E12.5424
G1 X187.5440 Y29.2860 E12.5775
G1 X205.7140 Y47.4560 E13.6851
G1 X205.7140 Y48.2700 E13.7202
G1 X186.7300 Y29.2860 E14.8775
G1 X185.9150 Y29.2860 E14.9127
G1 X205.7140 Y49.0850 E16.1196
G1 X205.7140 Y49.9000 E16.1547
G1 X185.1000 Y29.2860 E17.4113
G1 X184.2860 Y29.2860 E17.4465
G1 X205.7140 Y50.7140 E18.7527
G1 X204.9000 Y50.7140 E18.7879
G1 X184.2860 Y30.1000 E20.0445
G1 X184.2860 Y30.9150 E20.0796
G1 X204.0850 Y50.7140 E21.2865
G1 X203.2700 Y50.7140 E21.3217
G1 X184.2860 Y31.7300 E22.4790
G1 X184.2860 Y32.5440 E22.5141
G1 X202.4560 Y50.7140 E23.6217
G1 X201.6410 Y50.7140 E23.6568
G1 X184.2860 Y33.3590 E24.7148
G1 X184.2860 Y34.1730 E24.7499
G1 X200.8270 Y50.7140 E25.7583
G1 X200.0120 Y50.7140 E25.7934
G1 X184.2860 Y34.9880 E26.7521
G1 X184.2860 Y35.8020 E26.7872
G1 X199.1980 Y50.7140 E27.6962
G1 X198.3830 Y50.7140 E27.7313
G1 X184.2860 Y36.6170 E28.5907
G1 X184.2860 Y37.4320 E28.6258
G1 X197.5680 Y50.7140 E29.4355
G1 X196.7540 Y50.7140 E29.4706
G1 X184.2860 Y38.2460 E30.2307
G1 X184.2860 Y39.0610 E30.2658
G1 X195.9390 Y50.7140 E30.9762
G1 X195.1250 Y50.7140 E31.0113
G1 X184.2860 Y39.8750 E31.6720
G1 X184.2860 Y40.6900 E31.7071
G1 X194.3100 Y50.7140 E32.3182
G1 X193.4950 Y50.7140 E32.3533
G1 X184.2860 Y41.5050 E32.9147
G1 X184.2860 Y42.3190 E32.9499
G1 X192.6810 Y50.7140 E33.4616
G1 X191.8660 Y50.7140 E33.4967
G1 X184.2860 Y43.1340 E33.9588
G1 X184.2860 Y43.9480 E33.9939
G1 X191.0520 Y50.7140 E34.4064
G1 X190.2370 Y50.7140 E34.4415
G1 X184.2860 Y44.7630 E34.8043
G1 X184.2860 Y45.5770 E34.8394
G1 X189.4230 Y50.7140 E35.1525
G1 X188.6080 Y50.7140 E35.1877
G1 X184.2860 Y46.3920 E35.4511
G1 X184.2860 Y47.2070 E35.4863
G1 X187.7930 Y50.7140 E35.7001
G1 X186.9790 Y50.7140 E35.7352
G1 X184.2860 Y48.0210 E35.8994
G1 X184.2860 Y48.8360 E35.9345
G1 X186.1640 Y50.7140 E36.0490
G1 X185.3500 Y50.7140 E36.0841
G1 X184.2860 Y49.6500 E36.1489
G1 X184.2860 Y50.4650 E36.1840
G1 X184.5350 Y50.7140 E36.1992
G92 E0.0000
G1 E-1 F2400 ; custom retraction

; square 5
;process Process
;layer 1, Z = 0.200
T0
G92 E0.0000
G1 E-1 F2400 ; custom retraction
;fan1;
G1 Z0.200 F1200
G1 X179.6360 Y181.3140 F6000
G1 E0 F2400 ; custom un-retraction/prime
G92 E0.0000
G1 X181.3140 Y179.6360 E0.1023 F1800
G1 X208.6860 Y179.6360 E1.2822
G1 X210.3640 Y181.3140 E1.3844
G1 X210.3640 Y208.6860 E2.5643
G1 X208.6860 Y210.3640 E2.6666
G1 X181.3140 Y210.3640 E3.8465
G1 X179.6360 Y208.6860 E3.9487
G1 X179.6360 Y181.3140 E5.1286
G92 E0.0000
G1 E-1 F2400 ; custom retraction
;zhop1
G1 X180.2120 Y181.5520 F6000
G1 Z0.200 F1200
G1 E0 F2400 ; custom un-retraction/prime
G92 E0.0000
G1 X181.5520 Y180.2120 E0.0817 F1800
G1 X208.4480 Y180.2120 E1.2410
G1 X209.7880 Y181.5520 E1.3227
G1 X209.7880 Y208.4480 E2.4820
G1 X208.4480 Y209.7880 E2.5637
G1 X181.5520 Y209.7880 E3.7231
G1 X180.2120 Y208.4480 E3.8048
G1 X180.2120 Y181.5520 E4.9641
G92 E0.0000
G1 E-1 F2400 ; custom retraction
;zhop1
G1 X182.7880 Y182.7880 F6000
G1 X182.7880 Y183.2020
G1 X183.9400 Y183.9400
G1 Z0.200 F1200
G1 E0 F2400 ; custom un-retraction/prime
G92 E0.0000
G1 X206.0600 Y183.9400 E0.9535 F1440
G1 X206.0600 Y206.0600 E1.9069
G1 X183.9400 Y206.0600 E2.8604
G1 X183.9400 Y183.9400 E3.8139
G1 X183.3640 Y183.3640 F6000
G92 E0.0000
G1 X206.6360 Y183.3640 E1.0031 F1440
G1 X206.6360 Y206.6360 E2.0063
G1 X183.3640 Y206.6360 E3.0094
G1 X183.3640 Y183.3640 E4.0125
G1 X182.7880 Y182.7880 F6000
G92 E0.0000
G1 X207.2120 Y182.7880 E1.0528 F1080
G1 X207.2120 Y207.2120 E2.1056
G1 X182.7880 Y207.2120 E3.1584
G1 X182.7880 Y182.7880 E4.2111
G1 X205.4650 Y184.2860 F6000
G92 E0.0000
G1 X205.7140 Y184.5350 E0.0152 F1440
G1 X205.7140 Y185.3500 E0.0503
G1 X204.6500 Y184.2860 E0.1152
G1 X203.8360 Y184.2860 E0.1503
G1 X205.7140 Y186.1640 E0.2648
G1 X205.7140 Y186.9790 E0.2999
G1 X203.0210 Y184.2860 E0.4640
G1 X202.2070 Y184.2860 E0.4992
G1 X205.7140 Y187.7930 E0.7130
G1 X205.7140 Y188.6080 E0.7481
G1 X201.3920 Y184.2860 E1.0116
G1 X200.5780 Y184.2860 E1.0467
G1 X205.7140 Y189.4220 E1.3598
G1 X205.7140 Y190.2370 E1.3949
G1 X199.7630 Y184.2860 E1.7577
G1 X198.9480 Y184.2860 E1.7928
G1 X205.7140 Y191.0520 E2.2053
G1 X205.7140 Y191.8660 E2.2404
G1 X198.1340 Y184.2860 E2.7025
G1 X197.3190 Y184.2860 E2.7376
G1 X205.7140 Y192.6810 E3.2494
G1 X205.7140 Y193.4950 E3.2845
G1 X196.5050 Y184.2860 E3.8459
G1 X195.6900 Y184.2860 E3.8810
G1 X205.7140 Y194.3100 E4.4921
G1 X205.7140 Y195.1250 E4.5272
G1 X194.8750 Y184.2860 E5.1879
G1 X194.0610 Y184.2860 E5.2231
G1 X205.7140 Y195.9390 E5.9334
G1 X205.7140 Y196.7540 E5.9686
G1 X193.2460 Y184.2860 E6.7286
G1 X192.4320 Y184.2860 E6.7637
G1 X205.7140 Y197.5680 E7.5734
G1 X205.7140 Y198.3830 E7.6085
G1 X191.6170 Y184.2860 E8.4679
G1 X190.8020 Y184.2860 E8.5030
G1 X205.7140 Y199.1980 E9.4120
G1 X205.7140 Y200.0120 E9.4471
G1 X189.9880 Y184.2860 E10.4058
G1 X189.1730 Y184.2860 E10.4409
G1 X205.7140 Y200.8270 E11.4493
G1 X205.7140 Y201.6410 E11.4844
G1 X188.3590 Y184.2860 E12.5424
G1 X187.5440 Y184.2860 E12.5775
G1 X205.7140 Y202.4560 E13.6851
G1 X205.7140 Y203.2700 E13.7202
G1 X186.7300 Y184.2860 E14.8775
G1 X185.9150 Y184.2860 E14.9127
G1 X205.7140 Y204.0850 E16.1196
G1 X205.7140 Y204.9000 E16.1547
G1 X185.1000 Y184.2860 E17.4113
G1 X184.2860 Y184.2860 E17.4465
G1 X205.7140 Y205.7140 E18.7527
G1 X204.9000 Y205.7140 E18.7879
G1 X184.2860 Y185.1000 E20.0445
G1 X184.2860 Y185.9150 E20.0796
G1 X204.0850 Y205.7140 E21.2865
G1 X203.2700 Y205.7140 E21.3217
G1 X184.2860 Y186.7300 E22.4790
G1 X184.2860 Y187.5440 E22.5141
G1 X202.4560 Y205.7140 E23.6217
G1 X201.6410 Y205.7140 E23.6568
G1 X184.2860 Y188.3590 E24.7148
G1 X184.2860 Y189.1730 E24.7499
G1 X200.8270 Y205.7140 E25.7583
G1 X200.0120 Y205.7140 E25.7934
G1 X184.2860 Y189.9880 E26.7521
G1 X184.2860 Y190.8020 E26.7872
G1 X199.1980 Y205.7140 E27.6962
G1 X198.3830 Y205.7140 E27.7313
G1 X184.2860 Y191.6170 E28.5907
G1 X184.2860 Y192.4320 E28.6258
G1 X197.5680 Y205.7140 E29.4355
G1 X196.7540 Y205.7140 E29.4706
G1 X184.2860 Y193.2460 E30.2307
G1 X184.2860 Y194.0610 E30.2658
G1 X195.9390 Y205.7140 E30.9762
G1 X195.1250 Y205.7140 E31.0113
G1 X184.2860 Y194.8750 E31.6720
G1 X184.2860 Y195.6900 E31.7071
G1 X194.3100 Y205.7140 E32.3182
G1 X193.4950 Y205.7140 E32.3533
G1 X184.2860 Y196.5050 E32.9147
G1 X184.2860 Y197.3190 E32.9499
G1 X192.6810 Y205.7140 E33.4616
G1 X191.8660 Y205.7140 E33.4967
G1 X184.2860 Y198.1340 E33.9588
G1 X184.2860 Y198.9480 E33.9939
G1 X191.0520 Y205.7140 E34.4064
G1 X190.2370 Y205.7140 E34.4415
G1 X184.2860 Y199.7630 E34.8043
G1 X184.2860 Y200.5770 E34.8394
G1 X189.4230 Y205.7140 E35.1525
G1 X188.6080 Y205.7140 E35.1877
G1 X184.2860 Y201.3920 E35.4511
G1 X184.2860 Y202.2070 E35.4863
G1 X187.7930 Y205.7140 E35.7001
G1 X186.9790 Y205.7140 E35.7352
G1 X184.2860 Y203.0210 E35.8994
G1 X184.2860 Y203.8360 E35.9345
G1 X186.1640 Y205.7140 E36.0490
G1 X185.3500 Y205.7140 E36.0841
G1 X184.2860 Y204.6500 E36.1489
G1 X184.2860 Y205.4650 E36.1840
G1 X184.5350 Y205.7140 E36.1992
G92 E0.0000
G1 E-1 F2400 ; custom retraction

G28 X0 ; home X axis
M106 S0 ; turn off cooling fan
M104 S0 ; turn off extruder
M140 S0 ; turn off bed
M84 ; disable motors
;customend
